source/assets/images/icons/artist.svg

<?xml version="1.0" encoding="UTF-8" standalone="no"?>
<!DOCTYPE svg PUBLIC "-//W3C//DTD SVG 1.1//EN" "http://www.w3.org/Graphics/SVG/1.1/DTD/svg11.dtd">
<svg width="100%" height="100%" viewBox="0 0 20 20" version="1.1" xmlns="http://www.w3.org/2000/svg" xmlns:xlink="http://www.w3.org/1999/xlink" xml:space="preserve" xmlns:serif="http://www.serif.com/" style="fill-rule:evenodd;clip-rule:evenodd;stroke-linejoin:round;stroke-miterlimit:2;">
    <path d="M15.75,8L12.01,4.25C12.004,4.158 12,4.065 12,3.973C12,1.784 13.802,-0.017 15.99,-0.017C17.057,-0.017 18.081,0.411 18.83,1.17C19.586,1.921 20.012,2.943 20.012,4.009C20.012,6.203 18.206,8.009 16.012,8.009C15.924,8.009 15.837,8.006 15.75,8ZM1.85,15.3L11.05,6.11L13.88,8.94L4.68,18.14L1.86,15.3L1.85,15.3ZM0.45,18.13L2.56,16.01L3.98,17.43L1.86,19.55L0.44,18.13L0.45,18.13ZM10,15L12,13L12,20L10,20L10,15Z" style="fill-rule:nonzero;"/>
</svg>

<svg xmlns="http://www.w3.org/2000/svg" viewBox="0 0 20 20"><path d="M15.75 8l-3.74-3.75a3.99 3.99 0 0 1 6.82-3.08A4 4 0 0 1 15.75 8zM1.85 15.3l9.2-9.19 2.83 2.83-9.2 9.2-2.82-2.84zm-1.4 2.83l2.11-2.12 1.42 1.42-2.12 2.12-1.42-1.42zM10 15l2-2v7h-2v-5z"/></svg>
